images/cart.svg

<svg width="24" height="24" viewBox="0 0 24 24" fill="none" xmlns="http://www.w3.org/2000/svg">
<path fill-rule="evenodd" clip-rule="evenodd" d="M16.5284 6C16.5097 5.9193 16.4903 5.83842 16.47 5.75746C16.206 4.70138 15.7903 3.55383 15.1124 2.65C14.4134 1.71802 13.3928 1 11.9999 1C10.607 1 9.58642 1.71802 8.88743 2.65C8.20956 3.55383 7.79381 4.70138 7.52979 5.75747C7.50955 5.83842 7.4901 5.9193 7.47139 6H5.87104C4.29165 6 2.98275 7.22455 2.87769 8.80044L2.14435 19.8004C2.02892 21.532 3.40232 23 5.13771 23H18.8621C20.5975 23 21.9709 21.532 21.8555 19.8004L21.1221 8.80044C21.0171 7.22455 19.7082 6 18.1288 6H16.5284ZM7.47139 14.5C8.04437 14.5 8.998 10.5684 8.99995 9.99817C9.0001 9.97438 9.00038 9.9506 9.00078 9.92682C9.00166 9.87413 9.00345 9.79455 9.00712 9.69194C9.01445 9.48652 9.02924 9.18999 9.05899 8.83304C9.08009 8.57976 9.10852 8.29862 9.14668 8H14.8532C14.8913 8.29862 14.9197 8.57976 14.9409 8.83305C14.9706 9.18999 14.9854 9.48652 14.9927 9.69194C14.9964 9.79455 14.9982 9.87413 14.9991 9.92682C14.9995 9.95134 14.9998 9.97587 14.9999 10.0004C14.9999 10.0004 15.47 14.5 16.47 14.5C17.47 14.5 16.9999 9.99866 16.9999 9.99866C16.9998 9.9636 16.9994 9.92854 16.9988 9.89349C16.9977 9.829 16.9956 9.7367 16.9914 9.62056C16.9832 9.38848 16.9667 9.06001 16.9339 8.66695C16.9169 8.46202 16.8952 8.23812 16.8678 8H18.1288C18.6553 8 19.0916 8.40818 19.1266 8.93348L19.8599 19.9335C19.8984 20.5107 19.4406 21 18.8621 21H5.13771C4.55925 21 4.10145 20.5107 4.13992 19.9335L4.87326 8.93348C4.90828 8.40818 5.34458 8 5.87104 8H7.13202C7.10459 8.23812 7.08297 8.46202 7.06589 8.66696C7.03314 9.06001 7.01668 9.38848 7.00839 9.62056C7.00424 9.7367 7.00213 9.829 7.00106 9.89349C7.00048 9.92785 7.00005 9.96221 6.99994 9.99658C6.99918 10.5672 6.89972 14.5 7.47139 14.5ZM9.53346 6H14.4664C14.2352 5.15322 13.9209 4.39466 13.5124 3.85C13.0864 3.28198 12.607 3 11.9999 3C11.3928 3 10.9134 3.28198 10.4874 3.85C10.0789 4.39466 9.76466 5.15322 9.53346 6Z" fill="#0F0F0F"/>
</svg>

<svg xmlns="http://www.w3.org/2000/svg" width="24" height="24" fill="none" viewBox="0 0 24 24"><path fill="#0f0f0f" fill-rule="evenodd" d="m16.528 6-.058-.243c-.264-1.056-.68-2.203-1.358-3.107C14.413 1.718 13.392 1 12 1s-2.414.718-3.113 1.65c-.677.904-1.093 2.051-1.357 3.107L7.47 6h-1.6a3 3 0 0 0-2.993 2.8l-.734 11A3 3 0 0 0 5.138 23h13.724a3 3 0 0 0 2.994-3.2l-.734-11A3 3 0 0 0 18.13 6zm-9.057 8.5c.573 0 1.527-3.932 1.529-4.502a7 7 0 0 1 .007-.306A18 18 0 0 1 9.147 8h5.706A19 19 0 0 1 15 9.927V10s.471 4.5 1.471 4.5.53-4.501.53-4.501a7 7 0 0 0-.009-.378A20 20 0 0 0 16.868 8h1.26a1 1 0 0 1 .999.933l.733 11A1 1 0 0 1 18.862 21H5.138a1 1 0 0 1-.998-1.067l.733-11A1 1 0 0 1 5.871 8h1.261a21 21 0 0 0-.13 1.893L7 9.997c0 .57-.1 4.503.471 4.503M9.533 6h4.933c-.23-.847-.545-1.605-.954-2.15C13.086 3.282 12.607 3 12 3s-1.087.282-1.513.85c-.408.545-.722 1.303-.954 2.15" clip-rule="evenodd"/></svg>
